!!!COM: Béla Bartók
!!!OTL: [T342_Bar-w40p15-16m98-107]
**kern	**dynam	**kern	**dynam	**kern	**dynam	**kern	**dynam	**kern	**dynam	**kern	**dynam	**kern	**dynam	**kern	**dynam	**kern	**dynam	**kern	**dynam	**kern	**dynam	**kern	**dynam	**kern	**dynam	**kern	**dynam
*grp:A	*grp:A	*grp:A	*grp:A	*grp:A	*grp:A	*grp:A	*grp:A	*grp:B	*grp:B	*grp:B	*grp:B	*grp:B	*grp:B	*grp:B	*grp:B	*grp:A	*grp:A	*grp:B	*grp:B	*grp:B	*grp:B	*grp:B	*grp:B	*grp:B	*grp:B	*grp:B	*grp:B
*part13	*	*part13	*part13	*part12	*part12	*part11	*part11	*part10	*part10	*part9	*part9	*part8	*part8	*part7	*part7	*part6	*part6	*part5	*part5	*part4	*part4	*part3	*part3	*part2	*part2	*part1	*part1
*staff14	*	*staff13	*	*staff12	*	*staff11	*	*staff10	*	*staff9	*	*staff8	*	*staff7	*	*staff6	*	*staff5	*	*staff4	*	*staff3	*	*staff2	*	*staff1	*
*I"Piano	*	*	*	*I"Snare Drum	*	*I"Timpani	*	*I"Trombone 2.	*	*I"Trombone 1.	*	*I"Horn in F 2. 4.	*	*I"Horn in F 1. 3.	*	*I"Contrabassoon	*	*I"Bassoon 1. 2.	*	*I"Clarinet in Bb 1. 2.	*	*I"Oboe 1. 2.	*	*I"Flute 1.2.	*	*I"Piccolo	*
*I'Pno.	*	*	*	*I'S.D.	*	*I'Timp.	*	*I'Tbn. 2.	*	*I'Tbn. 1	*	*I'Hn. in F 2. 4.	*	*I'Hn. in F 1. 3.	*	*I'Cbsn.	*	*I'Bsn. 1. 2.	*	*I'Cl. in Bb 1. 2.	*	*I'Ob. 1. 2.	*	*I'Fl. 1. 2.	*	*I'Picc.	*
*	*	*	*	*Isdrum	*	*	*	*	*	*	*	*	*	*	*	*	*	*	*	*	*	*	*	*	*	*	*
*	*	*	*	*stria1	*	*	*	*	*	*	*	*	*	*	*	*	*	*	*	*	*	*	*	*	*	*	*
*clefF4	*	*clefG2	*	*clefX	*	*clefF4	*	*clefF4	*	*clefF4	*	*clefG2	*	*clefG2	*	*clefF4	*	*clefF4	*	*clefG2	*	*clefG2	*	*clefG2	*	*clefG2	*
*	*	*	*	*	*	*	*	*	*	*	*	*ITrd4c7	*	*ITrd4c7	*	*ITrd7c12	*	*	*	*ITrd1c2	*	*	*	*	*	*ITrd-7c-12	*
*k[]	*	*k[]	*	*k[]	*	*k[]	*	*k[]	*	*k[]	*	*k[b-]	*	*k[b-]	*	*k[]	*	*k[]	*	*k[b-e-]	*	*k[]	*	*k[]	*	*k[]	*
*	*	*	*	*C:	*	*	*	*	*	*	*	*	*	*	*	*	*	*	*	*	*	*	*	*	*	*	*
*M3/4	*	*M3/4	*	*M3/4	*	*M3/4	*	*M3/4	*	*M3/4	*	*M3/4	*	*M3/4	*	*M3/4	*	*M3/4	*	*M3/4	*	*M3/4	*	*M3/4	*	*M3/4	*
=98	=98	=98	=98	=98	=98	=98	=98	=98	=98	=98	=98	=98	=98	=98	=98	=98	=98	=98	=98	=98	=98	=98	=98	=98	=98	=98	=98
!LO:TX:b:i:t=marc.	!	!	!LO:DY:t=[più %s ]	!	!LO:DY:ed=brack	!	!	!	!	!	!	!	!	!	!	!	!	!	!	!	!	!	!	!	!	!LO:TX:t=[Mosso [quarter]=104]	!
16EEELL 16FFF#X 16FF#X	.	8r	f <	16Re\LL	f	4r	.	4%3ryy	.	4%3ryy	.	4%3ryy	.	4%3ryy	.	4%3r)	.	4%3r)yy	.	4%3r)yy	.	4%3r)yy	.	4%3r)yy	.	4%3ryy	.
16EEEn 16FFF# 16FFn 16GG	.	.	.	16Re\J	.	.	.	.	.	.	.	.	.	.	.	.	.	.	.	.	.	.	.	.	.	.	.
16FFF# 16GGG 16GG 16AA	.	16cLL 16g 16dd	.	8Re\J	.	.	.	.	.	.	.	.	.	.	.	.	.	.	.	.	.	.	.	.	.	.	.
16GGGJJ 16AAA 16AA 16BB	.	16cJJ 16g 16dd	.	.	.	.	.	.	.	.	.	.	.	.	.	.	.	.	.	.	.	.	.	.	.	.	.
!	!	!	!	!	!LO:DY:t=più %s	!	!LO:DY:t=più %s	!	!	!	!	!	!	!	!	!	!	!	!	!	!	!	!	!	!	!	!
4BBB 4FF#X 4C#X	.	16r	ff [	8Re/	f	4BBn	f	.	.	.	.	.	.	.	.	.	.	.	.	.	.	.	.	.	.	.	.
.	.	16ccLL 16gg 16ddd	.	.	.	.	.	.	.	.	.	.	.	.	.	.	.	.	.	.	.	.	.	.	.	.	.
.	.	16cc 16gg 16ddd	.	16Re\LL	.	.	.	.	.	.	.	.	.	.	.	.	.	.	.	.	.	.	.	.	.	.	.
.	.	16ccJJ 16gg 16ddd	.	16Re\JJ	.	.	.	.	.	.	.	.	.	.	.	.	.	.	.	.	.	.	.	.	.	.	.
8BB 8F#X	.	8cc^^L 8gg 8ddd	.	16Re\LL	.	4BB	.	.	.	.	.	.	.	.	.	.	.	.	.	.	.	.	.	.	.	.	.
.	.	.	.	16Re\J	.	.	.	.	.	.	.	.	.	.	.	.	.	.	.	.	.	.	.	.	.	.	.
*clefG2	*	*	*	*	*	*	*	*	*	*	*	*	*	*	*	*	*	*	*	*	*	*	*	*	*	*	*
(8f#XL 8cc#X	.	16ccL 16gg 16ddd	.	8Re\J	.	.	.	.	.	.	.	.	.	.	.	.	.	.	.	.	.	.	.	.	.	.	.
.	.	16ccJJ 16gg 16ddd	.	.	.	.	.	.	.	.	.	.	.	.	.	.	.	.	.	.	.	.	.	.	.	.	.
=99	=99	=99	=99	=99	=99	=99	=99	=99	=99	=99	=99	=99	=99	=99	=99	=99	=99	=99	=99	=99	=99	=99	=99	=99	=99	=99	=99
*	*	*	*	*	*	*	*	*	*	*	*	*^	*	*	*	*	*	*	*	*	*	*	*	*	*	*	*
8BJ 8f#X)	.	8r	.	16Re\LL	.	8r	.	4%3ryy	.	4%3ryy	.	4ryy	4%3rcyy	.	4ryy	.	4%3r	.	4%3ryy	.	4%3ryy	.	4%3ryy	.	4%3ryy	.	4%3ryy	.
.	.	.	.	16Re\J	.	.	.	.	.	.	.	.	.	.	.	.	.	.	.	.	.	.	.	.	.	.	.	.
*clefF4	*	*	*	*	*	*	*	*	*	*	*	*	*	*	*	*	*	*	*	*	*	*	*	*	*	*	*	*
(8F#XL 8c#X	.	16ccLL 16gg 16ddd	.	8Re\J	.	8FF#X	.	.	.	.	.	.	.	.	.	.	.	.	.	.	.	.	.	.	.	.	.	.
.	.	16ccJJ 16gg 16ddd	.	.	.	.	.	.	.	.	.	.	.	.	.	.	.	.	.	.	.	.	.	.	.	.	.	.
!	!	!	!	!	!	!	!	!	!	!	!	!	!	!	!LO:TX:a:t=à4	!	!	!	!	!	!	!	!	!	!	!	!	!
8BBJ 8F#)	.	16r	.	16Re\LL	.	8r	.	.	.	.	.	8ryy	.	.	8ryy	.	.	.	.	.	.	.	.	.	.	.	.	.
.	.	16ccLL 16gg 16ddd	.	16Re\J	.	.	.	.	.	.	.	.	.	.	.	.	.	.	.	.	.	.	.	.	.	.	.	.
(8FF#XL 8C#X	.	16cc 16gg 16ddd	.	8Re\J	.	8FF#	.	.	.	.	.	8ryy	.	4ryy	8ryy	4ryy	.	.	.	.	.	.	.	.	.	.	.	.
.	.	16ccJJ 16gg 16ddd	.	.	.	.	.	.	.	.	.	.	.	.	.	.	.	.	.	.	.	.	.	.	.	.	.	.
8BBBJ 8FF#)	.	8r	.	16Re\LL	.	8r	.	.	.	.	.	8ryy	.	.	8ryy	.	.	.	.	.	.	.	.	.	.	.	.	.
.	.	.	.	16Re\J	.	.	.	.	.	.	.	.	.	.	.	.	.	.	.	.	.	.	.	.	.	.	.	.
8FFF#X 8FF#	.	16cLL 16g 16dd	.	8Re\J	.	8FF#	.	.	.	.	.	8ryy	.	.	8ryy	.	.	.	.	.	.	.	.	.	.	.	.	.
.	.	16cJJ 16g 16dd	.	.	.	.	.	.	.	.	.	.	.	.	.	.	.	.	.	.	.	.	.	.	.	.	.	.
*	*	*	*	*	*	*	*	*	*	*	*	*v	*v	*	*	*	*	*	*	*	*	*	*	*	*	*	*	*
!!LO:REH:t=100
=100	=100	=100	=100	=100	=100	=100	=100	=100	=100	=100	=100	=100	=100	=100	=100	=100	=100	=100	=100	=100	=100	=100	=100	=100	=100	=100	=100
*	*	*	*	*	*	*	*	*	*	*	*	*^	*	*	*	*	*	*	*	*	*	*	*	*	*	*	*
*8ba	*	*	*	*	*	*	*	*	*	*	*	*	*	*	*	*	*	*	*	*	*	*	*	*	*	*	*	*
8BBBB 8BBB	.	8r	.	8r	.	4BB	.	4%3ryy	.	4%3ryy	.	8ryy	4%3ryy	.	8ryy	.	4%3r	.	4%3ryy	.	4%3ryy	.	4%3ryy	.	4%3ryy	.	4%3ryy	.
*X8ba	*	*	*	*	*	*	*	*	*	*	*	*	*	*	*	*	*	*	*	*	*	*	*	*	*	*	*	*
16BBLL 16F#X 16c#X	.	16cnLL 16g 16dd	.	16Re\LL	.	.	.	.	.	.	.	4ryy	.	.	4ryy	.	.	.	.	.	.	.	.	.	.	.	.	.
16BB 16F# 16c#	.	16c 16g 16dd	.	16Re\JJ	.	.	.	.	.	.	.	.	.	.	.	.	.	.	.	.	.	.	.	.	.	.	.	.
16BB 16F# 16c#	.	16c 16g 16dd	.	8Re/	.	4BB	.	.	.	.	.	.	.	.	.	.	.	.	.	.	.	.	.	.	.	.	.	.
16BBJ 16F# 16c#	.	16cJ 16g 16dd	.	.	.	.	.	.	.	.	.	.	.	.	.	.	.	.	.	.	.	.	.	.	.	.	.	.
8BBJ 8F# 8c#	.	8cJ 8g 8dd	.	16Re\LL	.	.	.	.	.	.	.	16ryy	.	.	16ryy	.	.	.	.	.	.	.	.	.	.	.	.	.
.	.	.	.	16Re\JJ	.	.	.	.	.	.	.	16ryy	.	.	16ryy	.	.	.	.	.	.	.	.	.	.	.	.	.
16BBLL 16F# 16c#	.	16cLL 16g 16dd	.	8Re/	.	8r	.	.	.	.	.	8ryy	.	.	8ryy	.	.	.	.	.	.	.	.	.	.	.	.	.
16BBJ 16F# 16c#	.	16cJ 16g 16dd	.	.	.	.	.	.	.	.	.	.	.	.	.	.	.	.	.	.	.	.	.	.	.	.	.	.
8BBJ 8F# 8c#	.	8cJ 8g 8dd	.	16Re\LL	.	8BB	.	.	.	.	.	16ryy	.	.	16ryy	.	.	.	.	.	.	.	.	.	.	.	.	.
.	.	.	.	16Re\JJ	.	.	.	.	.	.	.	16ryy	.	.	16ryy	.	.	.	.	.	.	.	.	.	.	.	.	.
!!pagebreak:original
=101	=101	=101	=101	=101	=101	=101	=101	=101	=101	=101	=101	=101	=101	=101	=101	=101	=101	=101	=101	=101	=101	=101	=101	=101	=101	=101	=101	=101
!	!	!	!	!	!	!	!	!	!	!	!	!	!	!	!LO:TX:a:t=à2	!	!	!	!	!	!	!	!	!	!	!	!	!
16BBLL 16F#X 16c#X	.	16cLL 16g 16dd	.	8Re/	.	8r	.	4%3ryy	.	4%3ryy	.	8ryy	4%3ryy	.	8ryy	.	4%3r	.	4%3ryy	.	4%3ryy	.	4%3ryy	.	4%3ryy	.	4%3ryy	.
16BBJ 16F# 16c#	.	16cJ 16g 16dd	.	.	.	.	.	.	.	.	.	.	.	.	.	.	.	.	.	.	.	.	.	.	.	.	.	.
8BBJ 8F# 8c#	.	8cJ 8g 8dd	.	16Re\LL	.	8BB	.	.	.	.	.	16ryy	.	.	16ryy	.	.	.	.	.	.	.	.	.	.	.	.	.
.	.	.	.	16Re\JJ	.	.	.	.	.	.	.	16ryy	.	.	16ryy	.	.	.	.	.	.	.	.	.	.	.	.	.
8r	.	8r	.	8Re\L	.	8r	.	.	.	.	.	16ryy	.	.	16ryy	.	.	.	.	.	.	.	.	.	.	.	.	.
.	.	.	.	.	.	.	.	.	.	.	.	16ryy	.	.	16ryy	.	.	.	.	.	.	.	.	.	.	.	.	.
16BBLL 16F#	.	16cLL 16g 16dd	.	8Re\J	.	8FF#XL	.	.	.	.	.	8ryy	.	.	8ryy	.	.	.	.	.	.	.	.	.	.	.	.	.
16BBJ 16F#	.	16cJ 16g 16dd	.	.	.	.	.	.	.	.	.	.	.	.	.	.	.	.	.	.	.	.	.	.	.	.	.	.
8BBJ 8F#	.	8d-XJ 8a-X 8ee-X	.	8Re/	.	8BB	.	.	.	.	.	8ryy	.	.	8ryy	.	.	.	.	.	.	.	.	.	.	.	.	.
(24C#XLL	.	(24cLL	.	16Re\LL	.	8FF#J	.	.	.	.	.	8ryy	.	.	8ryy	.	.	.	.	.	.	.	.	.	.	.	.	.
24FF#X	.	24g	.	.	.	.	.	.	.	.	.	.	.	.	.	.	.	.	.	.	.	.	.	.	.	.	.	.
.	.	.	.	16Re\JJ	.	.	.	.	.	.	.	.	.	.	.	.	.	.	.	.	.	.	.	.	.	.	.	.
24BBBJ	.	24ddJ	.	.	.	.	.	.	.	.	.	.	.	.	.	.	.	.	.	.	.	.	.	.	.	.	.	.
*	*	*	*	*	*	*	*	*	*	*	*	*v	*v	*	*	*	*	*	*	*	*	*	*	*	*	*	*	*
=102	=102	=102	=102	=102	=102	=102	=102	=102	=102	=102	=102	=102	=102	=102	=102	=102	=102	=102	=102	=102	=102	=102	=102	=102	=102	=102	=102
*8ba	*	*	*	*	*	*	*	*	*	*	*	*	*	*	*	*	*	*	*	*	*	*	*	*	*	*	*
*	*	*	*	*	*	*	*	*	*	*	*	*^	*	*	*	*	*	*	*	*	*	*	*	*	*	*	*
8BBBBJ 8BBB)	.	8ccJ 8gg 8ddd)	.	8Re\L	.	4BB	.	4%3ryy	.	4%3ryy	.	8ryy	4rGyy	.	8ryy	.	4%3r	.	4%3ryy	.	4%3ryy	.	4%3ryy	.	4%3ryy	.	4%3ryy	.
*X8ba	*	*	*	*	*	*	*	*	*	*	*	*	*	*	*	*	*	*	*	*	*	*	*	*	*	*	*	*
(8F#XL 8c#X	.	16cnLL 16g 16dd	.	16Re\L	.	.	.	.	.	.	.	16ryy	.	.	16ryy	.	.	.	.	.	.	.	.	.	.	.	.	.
.	.	16cJJ 16g 16dd	.	16Re\JJ	.	.	.	.	.	.	.	16ryy	.	.	16ryy	.	.	.	.	.	.	.	.	.	.	.	.	.
8BBJ 8F#)	.	16r	.	8Re\L	.	4BB	.	.	.	.	.	8ryy	4rGyy	.	8ryy	.	.	.	.	.	.	.	.	.	.	.	.	.
.	.	16cLL 16g 16dd	.	.	.	.	.	.	.	.	.	.	.	.	.	.	.	.	.	.	.	.	.	.	.	.	.	.
(8FF#XL 8C#X	.	16c 16g 16dd	.	16Re\L	.	.	.	.	.	.	.	16ryy	.	.	16ryy	.	.	.	.	.	.	.	.	.	.	.	.	.
.	.	16cJJ 16g 16dd	.	16Re\JJ	.	.	.	.	.	.	.	16ryy	.	.	16ryy	.	.	.	.	.	.	.	.	.	.	.	.	.
8BBBJ 8FF#)	.	8cL 8g 8dd	.	8Re\L	.	8r	.	.	.	.	.	16ryy	16ryy	.	16ryy	.	.	.	.	.	.	.	.	.	.	.	.	.
.	.	.	.	.	.	.	.	.	.	.	.	16ryy	16ryy	.	16ryy	.	.	.	.	.	.	.	.	.	.	.	.	.
(8F#L 8c#	.	16cL 16g 16dd	.	8Re\J	.	8BB	.	.	.	.	.	8ryy	8ryy	.	8ryy	.	.	.	.	.	.	.	.	.	.	.	.	.
.	.	16cJJ 16g 16dd	.	.	.	.	.	.	.	.	.	.	.	.	.	.	.	.	.	.	.	.	.	.	.	.	.	.
*	*	*	*	*	*	*	*	*	*	*	*	*v	*v	*	*	*	*	*	*	*	*	*	*	*	*	*	*	*
=103	=103	=103	=103	=103	=103	=103	=103	=103	=103	=103	=103	=103	=103	=103	=103	=103	=103	=103	=103	=103	=103	=103	=103	=103	=103	=103	=103
!	!	!	!	!	!	!	!	!	!	!	!	!LO:TX:a:t=à2	!	!	!	!	!	!	!	!	!	!	!	!	!	!	!
8BBJ 8F#X)	.	16r	.	16Re\LL	.	4r	.	8ryy	4ryy	4ryy	.	8ryy	.	8ryy	.	4%3r	.	4%3ryy	.	4%3ryy	.	4%3ryy	.	4%3ryy	.	4%3ryy	.
.	.	16cLL 16g 16dd	.	16Re\J	.	.	.	.	.	.	.	.	.	.	.	.	.	.	.	.	.	.	.	.	.	.	.
(8FF#XL 8C#X	.	16c 16g 16dd	.	8Re\J	.	.	.	4ryy	.	.	.	4ryy	.	8ryy	.	.	.	.	.	.	.	.	.	.	.	.	.
.	.	16cJJ 16g 16dd	.	.	.	.	.	.	.	.	.	.	.	.	.	.	.	.	.	.	.	.	.	.	.	.	.
8BBBJ 8FF#)	.	16r	.	8Re\L	.	8BBL	.	.	.	8ryy	.	.	.	4ryy	.	.	.	.	.	.	.	.	.	.	.	.	.
.	.	16cLL 16g 16dd	.	.	.	.	.	.	.	.	.	.	.	.	.	.	.	.	.	.	.	.	.	.	.	.	.
8BB 8F#	.	16c 16g 16dd	.	16Re\L	.	8FF#XJ	.	8ryy	.	16ryy	4ryy	16ryy	.	.	.	.	.	.	.	.	.	.	.	.	.	.	.
.	.	16cJJ 16g 16dd	.	16Re\JJ	.	.	.	.	.	16ryy	.	16ryy	.	.	.	.	.	.	.	.	.	.	.	.	.	.	.
16r	.	8c 8g 8cc	.	8Re\L	.	4r	.	16ryy	.	8ryy	.	16ryy	.	8ryy	.	.	.	.	.	.	.	.	.	.	.	.	.
!LO:TX:b:i:t=marcatissimo	!	!	!	!	!	!	!	!	!	!	!	!	!	!	!	!	!	!	!	!	!	!	!	!	!	!	!
16AAA-XLL 16EE-X 16BB-X	.	.	.	.	.	.	.	16ryy	.	.	.	16ryy	.	.	.	.	.	.	.	.	.	.	.	.	.	.	.
16BBB-X 16FFn 16Cn	.	(<24cLL	<	16Re\L	.	.	.	8ryy	.	8ryy	.	8ryy	.	8ryy	4ryy	.	.	.	.	.	.	.	.	.	.	.	.
.	.	24g	.	.	.	.	.	.	.	.	.	.	.	.	.	.	.	.	.	.	.	.	.	.	.	.	.
16CCJJ 16GG 16D	.	.	.	16Re\JJ	.	.	.	.	.	.	.	.	.	.	.	.	.	.	.	.	.	.	.	.	.	.	.
.	.	24ddJJ	.	.	.	.	.	.	.	.	.	.	.	.	.	.	.	.	.	.	.	.	.	.	.	.	.
!!pagebreak:original
=104	=104	=104	=104	=104	=104	=104	=104	=104	=104	=104	=104	=104	=104	=104	=104	=104	=104	=104	=104	=104	=104	=104	=104	=104	=104	=104	=104
*	*	*	*	*	*	*	*	*	*	*	*	*	*	*^	*	*	*	*	*	*	*	*	*	*	*	*	*
!	!	!	!	!	!	!	!	!	!	!	!	!LO:TX:a:t=à2	!	!	!	!	!	!	!	!	!	!	!	!	!	!	!	!
8DD 8AA 8E	.	/8ccL 8gg 8ddd)	[ sf	16Re\LL	.	4D	.	4%3ryy	.	8ryy	.	8ryy	.	8ryy	8ryy	.	2.DDD	ff	4ryy	.	4ryy	.	4ryy	.	4ryy	.	4%3ryy	.
.	.	.	.	16Re\J	.	.	.	.	.	.	.	.	.	.	.	.	.	.	.	.	.	.	.	.	.	.	.	.
(8AL 8e	.	16cL 16g 16dd	.	8Re\J	.	.	.	.	.	8ryy	.	8ryy	.	8ryy	8ryy	.	.	.	.	.	.	.	.	.	.	.	.	.
.	.	16cJJ 16g 16dd	.	.	.	.	.	.	.	.	.	.	.	.	.	.	.	.	.	.	.	.	.	.	.	.	.	.
!	!	!	!	!	!	!	!	!	!	!	!	!	!	!	!	!	!	!	!LO:TX:a:t=à2	!	!LO:TX:a:t=à2	!	!	!	!LO:TX:a:t=à2	!	!	!
8DJ 8A)	.	8r	.	8r	.	4D	.	.	.	4ryy	.	2ryy	.	8ryy	8ryy	.	.	.	8ryy	.	8ryy	.	8ryy	.	8ryy	.	.	.
*	*	*	*	*	*	*	*	*	*	*	*	*	*	*	*	*	*	*	*clefC4	*	*	*	*	*	*	*	*	*
(8AAL 8E	.	16cLL 16g 16dd	.	16Re\LL	.	.	.	.	.	.	.	.	.	4ryy	4ryy	.	.	.	8ryy	4ryy	8ryy	4ryy	8ryy	4ryy	8ryy	4ryy	.	.
.	.	16c 16g 16dd	.	16Re\JJ	.	.	.	.	.	.	.	.	.	.	.	.	.	.	.	.	.	.	.	.	.	.	.	.
8DDJ 8AA)	.	16c 16g 16dd	.	8Re/	.	8r	.	.	.	4ryy	.	.	.	.	.	.	.	.	8ryy	.	8ryy	.	8ryy	.	8ryy	.	.	.
.	.	16cJ 16g 16dd	.	.	.	.	.	.	.	.	.	.	.	.	.	.	.	.	.	.	.	.	.	.	.	.	.	.
(8AAAL 8EE	.	8cJ 8g 8dd	.	16Re\LL	.	8AA	.	.	.	.	.	.	.	16ryy	16ryy	.	.	.	8ryy	.	8ryy	.	8ryy	.	8ryy	.	.	.
.	.	.	.	16Re\JJ	.	.	.	.	.	.	.	.	.	16ryy	16ryy	.	.	.	.	.	.	.	.	.	.	.	.	.
!!LO:REH:t=105
=105	=105	=105	=105	=105	=105	=105	=105	=105	=105	=105	=105	=105	=105	=105	=105	=105	=105	=105	=105	=105	=105	=105	=105	=105	=105	=105	=105	=105
8DDDJ 8AAA)	.	8r	.	8Re/	.	4D	.	4%3ryy	.	4%3ryy	.	8ryy	.	8ryy	8ryy	.	2.DD	.	8ryy	.	8ryy	.	8ryy	.	8ryy	.	4%3ryy	.
(8AL 8e	.	8c 8g 8dd	.	16Re\LL	.	.	.	.	.	.	.	8ryy	.	16ryy	16ryy	.	.	.	4ryy	.	4ryy	.	4ryy	.	4ryy	.	.	.
.	.	.	.	16Re\JJ	.	.	.	.	.	.	.	.	.	16ryy	16ryy	.	.	.	.	.	.	.	.	.	.	.	.	.
8DJ 8A)	.	8r	.	8Re/	.	4D	.	.	.	.	.	8ryy	.	8ryy	2ryy	.	.	.	.	.	.	.	.	.	.	.	.	.
(8AAL 8E	.	8c 8g 8dd	.	16Re\LL	.	.	.	.	.	.	.	16ryy	.	16ryy	.	.	.	.	16ryy	.	16ryy	.	16ryy	.	16ryy	.	.	.
.	.	.	.	16Re\JJ	.	.	.	.	.	.	.	16ryy	.	16ryy	.	.	.	.	16ryy	.	16ryy	.	16ryy	.	16ryy	.	.	.
8DDJ 8AA)	.	8r	.	16Re\LL	.	8r	.	.	.	.	.	16ryy	.	16ryy	.	.	.	.	8ryy	.	8ryy	.	8ryy	.	8ryy	.	.	.
.	.	.	.	16Re\	.	.	.	.	.	.	.	16ryy	.	16ryy	.	.	.	.	.	.	.	.	.	.	.	.	.	.
(8AAAL 8EE	.	16cLL 16g 16dd	.	16Re\	.	8AA	.	.	.	.	.	8ryy	.	8ryy	.	.	.	.	16ryy	.	16ryy	.	16ryy	.	16ryy	.	.	.
.	.	16c 16g 16dd	.	16Re\JJ	.	.	.	.	.	.	.	.	.	.	.	.	.	.	16ryy	.	16ryy	.	16ryy	.	16ryy	.	.	.
=106	=106	=106	=106	=106	=106	=106	=106	=106	=106	=106	=106	=106	=106	=106	=106	=106	=106	=106	=106	=106	=106	=106	=106	=106	=106	=106	=106	=106
8DDDJ 8AAA)	.	16c 16g 16dd	.	8Re/	.	4D	.	4%3ryy	.	4%3ryy	.	8ryy	.	8ryy	2.ryy	.	[2.DD	.	8ryy	.	8ryy	.	8ryy	.	8ryy	.	4%3ryy	.
.	.	16cJ 16g 16dd	.	.	.	.	.	.	.	.	.	.	.	.	.	.	.	.	.	.	.	.	.	.	.	.	.	.
(8AL 8e	.	8cJ 8g 8dd	.	16Re\LL	.	.	.	.	.	.	.	4ryy	.	4ryy	.	.	.	.	16ryy	.	16ryy	.	16ryy	.	16ryy	.	.	.
.	.	.	.	16Re\JJ	.	.	.	.	.	.	.	.	.	.	.	.	.	.	16ryy	.	16ryy	.	16ryy	.	16ryy	.	.	.
8DJ 8A)	.	8r	.	8Re/	.	4D	.	.	.	.	.	.	.	.	.	.	.	.	16ryy	.	16ryy	.	16ryy	.	16ryy	.	.	.
.	.	.	.	.	.	.	.	.	.	.	.	.	.	.	.	.	.	.	16ryy	.	16ryy	.	16ryy	.	16ryy	.	.	.
(8AAL 8E	.	16cLL 16g 16dd	.	16Re\LL	.	.	.	.	.	.	.	8ryy	.	8ryy	.	.	.	.	8ryy	.	8ryy	.	8ryy	.	8ryy	.	.	.
.	.	16c 16g 16dd	.	16Re\JJ	.	.	.	.	.	.	.	.	.	.	.	.	.	.	.	.	.	.	.	.	.	.	.	.
8DDJ 8AA)	.	16c 16g 16dd	.	8Re\L	.	8r	.	.	.	.	.	4ryy	.	4ryy	.	.	.	.	8ryy	.	8ryy	.	8ryy	.	8ryy	.	.	.
.	.	16cJ 16g 16dd	.	.	.	.	.	.	.	.	.	.	.	.	.	.	.	.	.	.	.	.	.	.	.	.	.	.
(8AL 8e	.	8cJ 8g 8dd	.	8Re\J	.	8AA	.	.	.	.	.	.	.	.	.	.	.	.	8ryy	.	8ryy	.	8ryy	.	8ryy	.	.	.
=107	=107	=107	=107	=107	=107	=107	=107	=107	=107	=107	=107	=107	=107	=107	=107	=107	=107	=107	=107	=107	=107	=107	=107	=107	=107	=107	=107	=107
*	*	*	*	*	*	*	*	*	*	*	*	*	*	*	*	*	*	*	*	*	*	*	*^	*	*	*	*	*
8DJ 8A)	.	8cc 8gg 8ddd	.	16Re/LL	.	8DL	.	4%3ryy	.	4%3ryy	.	8ryy	.	8ryy	2.ryy	.	2.DD]	.	8ryy	.	8ryy	.	8ryy	8ryyyy	.	8ryy	.	4ryy	.
.	.	.	.	16Re/J	.	.	.	.	.	.	.	.	.	.	.	.	.	.	.	.	.	.	.	.	.	.	.	.	.
*	*	*	*	*	*	*	*	*	*	*	*	*	*	*	*	*	*	*	*clefF4	*	*	*	*	*	*	*	*	*	*
(8AAL 8E	.	8c 8g 8dd	.	8Re/J	.	16AAL	.	.	.	.	.	4ryy	.	4ryy	.	.	.	.	8ryy	.	8ryy	.	8ryy	8ryy	.	8ryy	.	.	.
.	.	.	.	.	.	16AAJJ	.	.	.	.	.	.	.	.	.	.	.	.	.	.	.	.	.	.	.	.	.	.	.
8DDJ 8AA)	.	8r	.	16Re/LL	.	8DL	.	.	.	.	.	.	.	.	.	.	.	.	4ryy	.	4ryy	.	4ryy	4ryy	.	4ryy	.	4ryy	.
.	.	.	.	16Re/J	.	.	.	.	.	.	.	.	.	.	.	.	.	.	.	.	.	.	.	.	.	.	.	.	.
8D 8A 8e	.	16cLL 16g 16dd	.	8Re/J	.	16AAL	.	.	.	.	.	8ryy	.	8ryy	.	.	.	.	.	.	.	.	.	.	.	.	.	.	.
.	.	16cJ 16g 16dd	.	.	.	16AAJJ	.	.	.	.	.	.	.	.	.	.	.	.	.	.	.	.	.	.	.	.	.	.	.
!	!	!	!	!	!	!	!	!	!	!	!	!	!	!	!	!	!	!	!	!	!	!	!LO:TX:a:t=à2	!	!	!	!	!	!
16r	.	8c 8g 8dd	.	8r	.	16DLL	.	.	.	.	.	4ryy	.	4ryy	.	.	.	.	8ryy	.	8ryy	.	8ryy	4ryyyy	.	8ryy	.	8ryy	.
!LO:TX:b:i:t=marc.	!	!	!	!	!	!	!	!	!	!	!	!	!	!	!	!	!	!	!	!	!	!	!	!	!	!	!	!	!
16EELL 16E	.	.	.	.	.	16DJ	.	.	.	.	.	.	.	.	.	.	.	.	.	.	.	.	.	.	.	.	.	.	.
16DD 16D	.	8ccJ 8gg 8ddd	.	8Rett/	< [	8DJ	.	.	.	.	.	.	.	.	.	.	.	.	8ryy	.	8ryy	.	8ryy	.	.	8ryy	4ryy	8ryy	4ryy
16CCJJ 16C	.	.	.	.	.	.	.	.	.	.	.	.	.	.	.	.	.	.	.	.	.	.	.	.	.	.	.	.	.
*	*	*	*	*	*	*	*	*	*	*	*	*	*	*v	*v	*	*	*	*	*	*	*	*v	*v	*	*	*	*	*
=	=	=	=	=	=	=	=	=	=	=	=	=	=	=	=	=	=	=	=	=	=	=	=	=	=	=	=
*-	*-	*-	*-	*-	*-	*-	*-	*-	*-	*-	*-	*-	*-	*-	*-	*-	*-	*-	*-	*-	*-	*-	*-	*-	*-	*-	*-
!!!system-decoration: [([(s1,s2,s3,s4,s5,s6)])][([(s7,s8)][(s9,s10)])][(s11)](s12)[({(s13,s14)})]
!!!RDF**kern: > = above
!!!RDF**kern: < = below
!!!EED: Daniel Wright
!!!EEV: 2021/07/16
!!!EED2: Jason Lee
!!!EEV2: 2022/01/30
!!!RDF**kern: i = marked note, color="hotpink", text="extra("
